icons/currency-dollar-outline.svg

<svg xmlns="http://www.w3.org/2000/svg" width="24" height="24" viewBox="0 0 24 24">
  <path d="M12,1 C18.0751322,1 23,5.92486775 23,12 C23,18.0751322 18.0751322,23 12,23 C5.92486775,23 1,18.0751322 1,12 C1,5.92486775 5.92486775,1 12,1 Z M12,3 C7.02943725,3 3,7.02943725 3,12 C3,16.9705627 7.02943725,21 12,21 C16.9705627,21 21,16.9705627 21,12 C21,7.02943725 16.9705627,3 12,3 Z M12,5 C12.5128358,5 12.9355072,5.38604019 12.9932723,5.88337887 L13,6 L13.0004013,6.59103063 C13.8652521,6.74877894 14.7185199,7.11049616 15.5547002,7.66794971 C16.0142289,7.97430216 16.1384028,8.59517151 15.8320503,9.0547002 C15.5256978,9.51422888 14.9048285,9.63840275 14.4452998,9.33205029 C13.953402,9.00411842 13.472645,8.77558069 13.000131,8.64210302 L13.0016615,11.2877987 C15.1058166,12.0514602 16,12.8015743 16,14.5 C16,16.2316901 14.764373,17.1825949 13.0008399,17.4326357 L13,18 C13,18.5522847 12.5522847,19 12,19 C11.4871642,19 11.0644928,18.6139598 11.0067277,18.1166211 L11,18 L11.0005993,17.4091518 C10.135406,17.2515 9.2818026,16.8897188 8.4452998,16.3320503 C7.98577112,16.0256978 7.86159725,15.4048285 8.16794971,14.9452998 C8.47430216,14.4857711 9.09517151,14.3615972 9.5547002,14.6679497 C10.0469449,14.9961128 10.5280331,15.2247416 11.0008687,15.3581792 L10.9987351,12.711906 C8.85886794,11.9357387 8,11.207538 8,9.5 C8,7.76798511 9.23609055,6.81704848 11.0001524,6.56722369 L11,6 C11,5.44771525 11.4477153,5 12,5 Z M13.0015252,13.4398595 L13.0018777,15.4046258 C13.6630371,15.2556988 14,14.93884 14,14.5 C14,14.0733476 13.752359,13.7782803 13.0015252,13.4398595 Z M10.9991381,8.5951456 C10.337308,8.74397673 10,9.06093535 10,9.5 C10,9.93359867 10.2348272,10.2211979 10.9985168,10.5616675 L10.9991381,8.5951456 Z"/>
</svg>

<svg xmlns="http://www.w3.org/2000/svg" viewBox="0 0 24 24">
  <path d="M12 1a11 11 0 1 1 0 22 11 11 0 0 1 0-22zm0 2a9 9 0 1 0 0 18 9 9 0 0 0 0-18zm0 2a1 1 0 0 1 1 .88v.72c.87.15 1.72.51 2.55 1.07a1 1 0 1 1-1.1 1.66c-.5-.33-.98-.55-1.45-.69v2.65c2.1.76 3 1.51 3 3.21 0 1.73-1.24 2.68-3 2.93V18a1 1 0 0 1-2 .12v-.72a6.81 6.81 0 0 1-2.55-1.07 1 1 0 0 1 1.1-1.66c.5.33.98.55 1.45.69V12.7c-2.14-.77-3-1.5-3-3.21 0-1.73 1.24-2.68 3-2.93V6a1 1 0 0 1 1-1zm1 8.44v1.96c.66-.14 1-.46 1-.9 0-.43-.25-.72-1-1.06zM11 8.6c-.66.14-1 .46-1 .9 0 .43.23.72 1 1.06V8.6z"/>
</svg>
